X:1
T:Dead Things
T:Dead Things
T:From The Hours | Piano Only
T:Philip Glass
C:Philip Glass
%%score { ( 1 3 ) | ( 2 4 ) }
L:1/8
Q:1/4=96
M:3/4
K:Bb
V:1 treble nm="Piano" snm="Pno."
V:3 treble 
V:2 bass 
V:4 bass 
V:1
!p! z6 |!>(! ([Bg]3 [Bf]3 | B3 [Bd]3 | [Gc]3 [GB]3!>)! |!pp! [_Ac]6- | [Ac]6) | z6 | z6 |!p! z6 | %9
!>(! (G3 A3 | [GB]3 [Gc]3 | [Bd]3 [Be]3!>)! |!pp! [ce]6- | [ce]6) | z6 | z6 |!p! GB de dB | %17
 GB de dB | _GB de dB | _GB de dB | FB de dB | FB de dB | %22
!mp! ([^f^f']!>(![ee'] [ee'][dd'] [dd'][cc'] | [cc'][Bb] [Bb][Aa] [Aa][Bb])!>)! |!p! GB de dB | %25
 GB de dB | _GB de dB | _GB de dB | FB de dB | FB de dB |!p! ([Ee]!<(![=E=e] [Ee][Ff] [Ff][^F^f] | %31
 [^F^f][Gg] [Gg][Aa] [Aa]!<)!!mp![Bb]) |!p! [G,B,]D [G,B,]D [G,B,]D | [G,B,]D [G,B,]D [G,B,]E | %34
 [_G,B,]D [G,B,]D [G,B,]D | [_G,B,]D [G,B,]D [G,B,]E | [F,B,]D [F,B,]D [F,B,]D | %37
 [F,B,]D [F,B,]D [F,B,]E |!mp! D!>(!^F DF DF | C^F CF CF!>)! |!p! z6 |!mp!!8va(! ([gg']4 [aa']2 | %42
 [bb']4 [aa']2 | [gg']4 [ff']2 | [dd']6- | [dd']6) |!>(! ([ff']3 [ee']3 | [dd']3 [cc']3)!>)! | %48
!p! z6 |!<(! ([gg']4 [aa']2 | [bb']4 [c'c'']2 | [d'd'']4 [c'c'']2 | [bb']6-!<)! |!mp!!mp! [bb']6) | %54
!>(! ([bb']6 | [aa']6)!>)! |!p! gb d'g bd' | gb d'g ad' | bd' _g'b ad' | gb d'g fb | df bd fb | %61
 df bd fb | ^fa c'f ac' | d^f ad fa | gb d'g bd' | gb d'g ad' | bd' _g'b c'g' | d'_g' b'd' c'g' | %68
 bd' f'b d'f' | bd' f'b d'f' | bd' ^f'b d'f' | ad' ^f'a d'f'!8va)! | (GB de de) | !trill(!Td6 | %74
 (_GB de de) | !trill(!Td6 | (FB de de) | !trill(!Td6 | %78
!mp! ([^f^f']!>(![ee'] [ee'][dd'] [dd'][cc'] | [cc'][Bb] [Bb][Aa] [Aa][Bb])!>)! |!p! (GB de de) | %81
 !trill(!Td6 | (_GB de de) | !trill(!Td6 | (FB de de) | !trill(!Td6 | %86
!8va(!!<(! ([ee'][=e=e'] [ee'][ff'] [ff'][^f^f'] | %87
 [^f^f'][gg'] [gg'][aa'] [aa']!<)!!mp![bb'])!8va)! | (3(gbd' (3e'd'b) (3(gbd') | %89
 (3(gbd' (3e'd'b) (3(gbd') | (3(_gbd' (3e'd'b) (3(gbd') | (3(_gbd' (3e'd'b) (3(gbd') | %92
 (3(fbd' (3e'd'b) (3(fbd') | (3(fbd' (3e'd'b) (3(fbd') |!mf! (3(d!>(!^fa (3d'af) (3(c'af | %95
 (3d^fa) (3(dfa (3d'af)!>)! |!mp! (3(gbd' (3e'd'b) (3(gbd') | (3(gbd' (3e'd'b) (3(gbd') | %98
 (3(_gbd' (3e'd'b) (3(gbd') | (3(_gbd' (3e'd'b) (3(gbd') | (3(fbd' (3e'd'b) (3(fbd') | %101
 (3(fbd' (3e'd'b) (3(fbd') |!<(! (3(d^fa (3d'af) (3(c'af | (3d^fa) (3(dfa (3d'a!mf!f)!<)! | z6 | %105
!>(! [gg']4 [ff']2 | [ee']4 [dd']2 | [cc']4 [Bb]2!>)! |!p! [_A_a]6- | [Aa]6 | z6 | z6 | z6 | %113
 [Gg]4 [Aa]2 | [Bb]4 [cc']2 | [dd']4 [ee']2 | [ee']6- | [ee']6 | z6 | z6 | !arpeggio![GBd]6- | %121
 [GBd]6 | !arpeggio![EGBe]6- | [EGBe]6 |!<(! !arpeggio![EGce]6- | [EGce]6!<)! | %126
!mf! !arpeggio![DF^Bd]6 |!>(! !arpeggio![D^FAd]6 | z6 | [DG]6!>)! |!pp! z6 | z6 |] %132
V:2
 [G,B,]D [G,B,]D [G,B,]D | [G,B,]D [G,B,]D [G,B,]D | [G,B,]D [G,B,]D [G,B,]D | %3
 [G,B,]D [G,B,]D [G,B,]D | [E,_A,]C [E,A,]C [E,A,]C | [E,_A,]C [E,A,]C [E,A,]C | %6
 [D,^F,]A, [D,F,]A, [D,F,]A, | [D,^F,]A, [D,F,]A, [D,F,]A, | [G,B,]D [G,B,]D [G,B,]D | %9
 [G,B,]D [G,B,]D [G,B,]D | [G,B,]D [G,B,]D [G,B,]D | [G,B,]D [G,B,]D [G,B,]D | %12
 [E,_A,]C [E,A,]C [E,A,]C | [E,_A,]C [E,A,]C [E,A,]C | [D,^F,A,]D [D,F,A,]D [D,F,A,]D | %15
 [D,^F,A,]D [D,F,A,]D [D,F,A,]D | [G,B,]D [G,B,]D [G,B,]D | [G,B,]D [G,B,]D [G,B,]D | %18
 [_G,B,]D [G,B,]D [G,B,]D | [_G,B,]D [G,B,]D [G,B,]D | [F,B,]D [F,B,]D [F,B,]D | %21
 [F,B,]D [F,B,]D [F,B,]D | [D,^F,A,]D [D,F,A,]D [D,F,A,]D | [D,^F,A,]C [D,F,A,]C [D,F,A,]C | %24
 [G,B,]D [G,B,]D [G,B,]D | [G,B,]D [G,B,]D [G,B,]D | [_G,B,]D [G,B,]D [G,B,]D | %27
 [_G,B,]D [G,B,]D [G,B,]D | [F,B,]D [F,B,]D [F,B,]D | [F,B,]D [F,B,]D [F,B,]D | %30
 [D,^F,A,]C [D,F,A,]C [D,F,A,]C | [D,^F,A,]C [D,F,A,]C [D,F,A,]C | %32
 [G,,B,,]D, [G,,B,,]D, [G,,B,,]D, | [G,,B,,]D, [G,,B,,]D, [G,,B,,]E, | %34
 [_G,,B,,]D, [G,,B,,]D, [G,,B,,]D, | [_G,,B,,]D, [G,,B,,]D, [G,,B,,]E, | %36
 [F,,B,,]D, [F,,B,,]D, [F,,B,,]D, | [F,,B,,]D, [F,,B,,]D, [F,,B,,]E, | %38
 [D,,A,,]D, [D,,A,,]D, [D,,A,,]D, | [D,,A,,]D, [D,,A,,]D, [D,,A,,]D, | %40
 [G,,B,,]D, [G,,B,,]D, [G,,B,,]D, | [G,,B,,]D, [G,,B,,]D, [G,,B,,]E, | %42
 [_G,,B,,]D, [G,,B,,]D, [G,,B,,]D, | [_G,,B,,]D, [G,,B,,]D, [G,,B,,]E, | %44
 [F,,B,,]D, [F,,B,,]D, [F,,B,,]D, | [F,,B,,]D, [F,,B,,]D, [F,,B,,]E, | %46
 [D,,A,,]^F, [A,,C,D,]F, [A,,C,D,]F, | [A,,C,D,]^F, [A,,C,D,]F, [A,,C,D,]F, | %48
 [G,,B,,]D, [G,,B,,]D, [G,,B,,]D, | [G,,B,,]D, [G,,B,,]D, [G,,B,,]E, | %50
 [_G,,B,,]D, [G,,B,,]D, [G,,B,,]D, | [_G,,B,,]D, [G,,B,,]D, [G,,B,,]E, | %52
 [F,,B,,]D, [F,,B,,]D, [F,,B,,]D, | [F,,B,,]D, [F,,B,,]D, [F,,B,,]E, | %54
 [D,,A,,]^F, [A,,C,D,]F, [A,,C,D,]F, | [A,,C,D,]^F, [A,,C,D,]F, [A,,C,D,]F, | %56
 [D,G,B,]D [D,G,B,]D [D,G,B,]D | [D,G,B,]D [D,G,B,]D [D,G,B,]D | [D,_G,B,]D [D,G,B,]D [D,G,B,]D | %59
 [D,_G,B,]D [D,G,B,]D [D,G,B,]D | [D,F,B,]D [D,F,B,]D [D,F,B,]D | [D,F,B,]D [D,F,B,]D [D,F,B,]D | %62
 [D,^F,]C [D,F,]C [D,F,]C | [D,^F,A,]C [D,F,A,]D [D,F,A,]E | [D,G,B,]D [D,G,B,]D [D,G,B,]D | %65
 [D,G,B,]D [D,G,B,]D [D,G,B,]D | [D,_G,B,]D [D,G,B,]D [D,G,B,]D | [D,_G,B,]D [D,G,B,]D [D,G,B,]D | %68
 [D,F,B,]D [D,F,B,]D [D,F,B,]D | [D,F,B,]D [D,F,B,]D [D,F,B,]D | [D,^F,]C [D,F,]C [D,F,]C | %71
 [D,^F,A,]C [D,F,A,]C [D,F,A,]C | [D,G,B,]D [D,G,B,]D [D,G,B,]D | [D,G,B,]D [D,G,B,]D [D,G,B,]D | %74
 [D,_G,B,]D [D,G,B,]D [D,G,B,]D | [D,_G,B,]D [D,G,B,]D [D,G,B,]D | [D,F,B,]D [D,F,B,]D [D,F,B,]D | %77
 [D,F,B,]D [D,F,B,]D [D,F,B,]D | [D,^F,A,]E [D,F,A,]E [D,F,A,]E | [D,^F,A,]D [D,F,A,]D [D,F,A,]C | %80
 [D,G,B,]D [D,G,B,]D [D,G,B,]D | [D,G,B,]D [D,G,B,]D [D,G,B,]D | [D,_G,B,]D [D,G,B,]D [D,G,B,]D | %83
 [D,_G,B,]D [D,G,B,]D [D,G,B,]D | [D,F,B,]D [D,F,B,]D [D,F,B,]D | [D,F,B,]D [D,F,B,]D [D,F,B,]D | %86
 [D,^F,A,]C [D,F,A,]C [D,F,A,]C | [D,^F,A,]C [D,F,A,]C [D,F,A,]C | [D,G,]B, [D,G,D]E [D,G,D]E | %89
 [D,G,B,D]2 [D,G,B,D]2 [D,G,B,D]2 | [D,_G,]B, [D,G,D]E [D,G,D]E | %91
 [D,_G,B,D]2 [D,G,B,D]2 [D,G,B,D]2 | [D,F,]B, [D,F,D]E [D,F,D]E | %93
 [D,F,B,D]2 [D,F,B,D]2 [D,F,B,D]2 | [A,C^F]_E [A,CE]D [A,D]C | [D,^F,C]B, [D,F,B,]A, [D,F,A,]B, | %96
 [D,G,]B, [D,G,D]E [D,G,D]E | [D,G,B,D]2 [D,G,B,D]2 [D,G,B,D]2 | [D,_G,]B, [D,G,D]E [D,G,D]E | %99
 [D,_G,B,D]2 [D,G,B,D]2 [D,G,B,D]2 | [D,F,]B, [D,F,D]E [D,F,D]E | %101
 [D,F,B,D]2 [D,F,B,D]2 [D,F,B,D]2 | [D,E,C]=E, [D,E,C]F, [D,F,C]^F, | %103
 [D,^F,C]G, [D,G,C]A, [D,A,C]B, | [D,G,]B, [D,G,]B, [D,G,]B, | [D,G,]B, [D,G,]B, [D,G,]B, | %106
 [D,G,]B, [D,G,]B, [D,G,]B, | [D,G,]B, [D,G,]B, [D,G,]B, | [_A,C]E [A,C]E [A,C]E | %109
 [_A,C]E [A,C]E [A,C]E | [D,^F,]A, [D,F,]A, [D,F,]A, | [D,^F,]A, [D,F,]A, [D,F,]A, | %112
 [G,B,]D [G,B,]D [G,B,]D | [G,B,]D [G,B,]D [G,B,]D | [G,B,]D [G,B,]D [G,B,]D | %115
 [G,B,]D [G,B,]D [G,B,]D | [E,_A,]C [E,A,]C [E,A,]C | [E,_A,]C [E,A,]C [E,A,]C | %118
 [A,,D,]^F, [A,,D,]F, [A,,D,]F, | [A,,D,]^F, [A,,D,]F, [A,,D,]F, | %120
 [D,G,B,D]2 [D,G,B,D]2 [D,G,B,D]2 | [D,G,B,D]2 [D,G,B,D]2 [D,G,B,D]2 | %122
 [D,G,B,D]2 [D,G,B,D]2 [D,G,B,D]2 | [D,G,B,D]2 [D,G,B,D]2 [D,G,B,D]2 | [D,G,C]2 [D,G,C]2 [D,G,C]2 | %125
 [D,G,C]2 [D,G,C]2 [D,G,C]2 | [D,F,B,]2 [D,F,B,]2 [D,F,B,]2 | [D,^F,A,]2 [D,F,A,]2 [D,F,A,]2 | %128
 [D,G,B,]2 [D,G,B,]2 [D,G,B,]2 | [D,G,B,]2 [D,G,B,]2 [D,G,B,]2 | [D,G,B,]2 [D,G,B,]2 [D,G,B,]2- | %131
 [D,G,B,]6 |] %132
V:3
 x6 | x6 | x6 | x6 | x6 | x6 | x6 | x6 | x6 | x6 | x6 | x6 | x6 | x6 | x6 | x6 | x6 | x6 | x6 | %19
 x6 | x6 | x6 | x6 | x6 | g6 | x6 | x6 | x6 | x6 | x6 | x6 | x6 | x6 | x6 | x6 | x6 | x6 | x6 | %38
 !arpeggio![^FAc]6 | !arpeggio![^FAe]3 [Ad]3 | x6 |!8va(! x6 | x6 | x6 | x6 | x6 | x6 | x6 | x6 | %49
 x6 | x6 | x6 | x6 | x6 | x6 | x6 | x6 | !>!g'4 !>!a'2 | !>!b'4 !>!a'2 | !>!g'4 !>!f'2 | !>!d'6- | %61
 d'6 | !>!^f'3 !>!e'3 | !>!d'3 !>!c'3 | x6 | !>!g'4 !>!a'2 | !>!b'4 !>!c''2 | !>!d''4 !>!c''2 | %68
 !>!b'6- | b'6 | !>!b'6 | !>!a'6!8va)! | x6 | B2 !trill)!B4 | x6 | B2 !trill)!B4 | x6 | %77
 B2 !trill)!B4 | x6 | x6 | x6 | B2 !trill)!B4 | x6 | B2 !trill)!B4 | x6 | B2 !trill)!B4 | %86
!8va(! x6 | x6!8va)! | x6 | x6 | x6 | x6 | x6 | x6 | x6 | x6 | x6 | x6 | x6 | x6 | x6 | x6 | x6 | %103
 x6 | x6 | x6 | x6 | x6 | x6 | x6 | x6 | x6 | x6 | x6 | x6 | x6 | x6 | x6 | x6 | x6 | x6 | x6 | %122
 x6 | x6 | x6 | x6 | x6 | x6 | x6 | x6 | x6 | x6 |] %132
V:4
 x6 | x6 | x6 | x6 | x6 | x6 | x6 | x6 | x6 | x6 | x6 | x6 | x6 | x6 | x6 | x6 | x6 | x6 | x6 | %19
 x6 | x6 | x6 | x6 | x6 | x6 | x6 | x6 | x6 | x6 | x6 | x6 | x6 | x6 | x6 | x6 | x6 | x6 | x6 | %38
 x6 | x6 | x6 | x6 | x6 | x6 | x6 | x6 | x6 | x6 | x6 | x6 | x6 | x6 | x6 | x6 | x6 | x6 | x6 | %57
 x6 | x6 | x6 | x6 | x6 | x6 | x6 | x6 | x6 | x6 | x6 | x6 | x6 | x6 | x6 | x6 | x6 | x6 | x6 | %76
 x6 | x6 | x6 | x6 | x6 | x6 | x6 | x6 | x6 | x6 | x6 | x6 | x6 | x6 | x6 | x6 | x6 | x6 | x6 | %95
 x6 | x6 | x6 | x6 | x6 | x6 | x6 | x6 | x6 | x6 | x6 | x6 | x6 | x6 | x6 | x6 | x6 | x6 | x6 | %114
 x6 | x6 | x6 | x6 | x6 | x6 | x6 | x6 | x6 | x6 | x6 | x6 | x6 | x6 | x6 | x6 | G,,,6- | G,,,6 |] %132

